public/Icons/list.svg

<svg fill="none" height="256" viewBox="0 0 24 24" width="256" xmlns="http://www.w3.org/2000/svg"><path d="m8 6.00067 13 .00072m-13 5.99931 13 .0008m-13 5.9992 13 .0008m-17.5-12.0015h.01m-.01 6h.01m-.01 6h.01m.49-12c0 .27614-.22386.5-.5.5s-.5-.22386-.5-.5.22386-.5.5-.5.5.22386.5.5zm0 6c0 .2761-.22386.5-.5.5s-.5-.2239-.5-.5.22386-.5.5-.5.5.2239.5.5zm0 6c0 .2761-.22386.5-.5.5s-.5-.2239-.5-.5.22386-.5.5-.5.5.2239.5.5z" stroke="#183331" stroke-linecap="round" stroke-linejoin="round" stroke-width="2"/></svg>

<!DOCTYPE svg PUBLIC "-//W3C//DTD SVG 1.1//EN" "http://www.w3.org/Graphics/SVG/1.1/DTD/svg11.dtd">
<!-- Uploaded to: SVG Repo, www.svgrepo.com, Transformed by: SVG Repo Mixer Tools -->
<svg width="256px" height="256px" viewBox="0 0 24 24" fill="none" xmlns="http://www.w3.org/2000/svg">
<g id="SVGRepo_bgCarrier" stroke-width="0"/>
<g id="SVGRepo_tracerCarrier" stroke-linecap="round" stroke-linejoin="round"/>
<g id="SVGRepo_iconCarrier"> <path d="M8 6.00067L21 6.00139M8 12.0007L21 12.0015M8 18.0007L21 18.0015M3.5 6H3.51M3.5 12H3.51M3.5 18H3.51M4 6C4 6.27614 3.77614 6.5 3.5 6.5C3.22386 6.5 3 6.27614 3 6C3 5.72386 3.22386 5.5 3.5 5.5C3.77614 5.5 4 5.72386 4 6ZM4 12C4 12.2761 3.77614 12.5 3.5 12.5C3.22386 12.5 3 12.2761 3 12C3 11.7239 3.22386 11.5 3.5 11.5C3.77614 11.5 4 11.7239 4 12ZM4 18C4 18.2761 3.77614 18.5 3.5 18.5C3.22386 18.5 3 18.2761 3 18C3 17.7239 3.22386 17.5 3.5 17.5C3.77614 17.5 4 17.7239 4 18Z" stroke="#183331" stroke-width="2" stroke-linecap="round" stroke-linejoin="round"/> </g>
</svg>
